src/icons/durable-objects.svg

<svg width="64" height="64" viewBox="0 0 64 64"  xmlns="http://www.w3.org/2000/svg"><path fill-rule="evenodd" clip-rule="evenodd" d="M32.2142 6.00078C32.1469 6.00026 32.0796 6 32.0122 6C26.8699 6 21.8431 7.52487 17.5674 10.3818C13.2917 13.2387 9.95923 17.2994 7.99135 22.0502C6.67838 25.22 6.01223 28.6021 6.01221 32C6.0122 33.6949 6.17793 35.3939 6.5118 37.0723C7.51502 42.1159 9.99128 46.7486 13.6274 50.3848C17.2636 54.0209 21.8964 56.4972 26.9399 57.5004C28.6852 57.8476 30.4525 58.013 32.2146 57.9992C32.256 57.9997 32.2976 58 32.3392 58C32.5163 58 32.6918 57.9953 32.8657 57.986C35.9753 57.8838 39.0578 57.2238 41.962 56.0209C46.7129 54.053 50.7735 50.7205 53.6304 46.4448C56.4873 42.1692 58.0122 37.1423 58.0122 32C58.0122 25.1044 55.2729 18.4912 50.397 13.6152C45.7225 8.94068 39.4512 6.22994 32.8651 6.01398C32.6914 6.0047 32.5161 6 32.3392 6C32.2975 6 32.2558 6.00026 32.2142 6.00078ZM22.7106 12.0631C21.7007 12.5342 20.724 13.0834 19.7897 13.7077C16.1718 16.1251 13.352 19.561 11.6869 23.581C10.8341 25.6398 10.3037 27.8046 10.1033 30H17.9084C17.953 28.8082 18.0374 27.6361 18.1604 26.4899L22.1579 26.7293C22.0396 27.7891 21.9566 28.8811 21.9114 30H30.0002V10.5188C28.2168 11.3287 26.5262 13.1005 25.1019 15.9289C25.0085 16.1143 24.9168 16.3034 24.8269 16.4959L20.9543 15.3514C21.1383 14.933 21.33 14.5256 21.5293 14.1298C21.8916 13.4103 22.2856 12.7185 22.7106 12.0631ZM30.0002 34H21.9114C22.1372 39.5836 23.3033 44.4994 25.1019 48.0711C26.5262 50.8995 28.2168 52.6713 30.0002 53.4812V34ZM22.7106 51.9369C22.2856 51.2815 21.8916 50.5897 21.5293 49.8702C19.3975 45.6369 18.1355 40.0745 17.9084 34H10.1033C10.1733 34.7668 10.2837 35.5319 10.4349 36.292C11.2838 40.5596 13.3791 44.4796 16.4559 47.5563C18.2791 49.3795 20.3983 50.8581 22.7106 51.9369ZM42.2653 51.4647C45.4967 49.7626 48.2636 47.277 50.3045 44.2225C52.3499 41.1614 53.5884 37.6453 53.9211 34H46.771C46.7254 35.219 46.6382 36.4174 46.5105 37.5886L42.5126 37.3492C42.6357 36.2649 42.7217 35.1465 42.7681 34H34.0002V53.7417C36.0316 53.1009 37.9731 51.2558 39.5771 48.071C39.6625 47.9015 39.7464 47.729 39.8288 47.5536L43.7027 48.6985C43.5254 49.0994 43.341 49.4902 43.1496 49.8703C42.8731 50.4191 42.5783 50.9519 42.2653 51.4647ZM42.7681 30H34.0002V10.2583C36.0316 10.8991 37.9731 12.7442 39.5771 15.929C41.3759 19.5006 42.5422 24.4165 42.7681 30ZM46.771 30C46.5438 23.9254 45.2816 18.363 43.1496 14.1297C42.8731 13.5808 42.5783 13.0481 42.2653 12.5353C44.2018 13.5553 45.9925 14.8675 47.5686 16.4437C51.2203 20.0954 53.4557 24.8987 53.9212 30H46.771Z" fill="#F6821F"/></svg>

<svg xmlns="http://www.w3.org/2000/svg" width="64" height="64" viewBox="0 0 64 64"><path fill="#F6821F" fill-rule="evenodd" d="M32.214 6h-.202a26 26 0 1 0 .327 52q.266 0 .527-.014A26 26 0 0 0 58.012 32 26 26 0 0 0 32.865 6.014a10 10 0 0 0-.65-.013m-9.503 6.063A22 22 0 0 0 10.104 30h7.804q.068-1.79.252-3.51l3.998.24A46 46 0 0 0 21.91 30H30V10.519c-1.784.81-3.475 2.582-4.9 5.41q-.139.278-.274.567l-3.873-1.145q.276-.627.575-1.221c.363-.72.757-1.412 1.182-2.067M30 34h-8.09c.226 5.584 1.392 10.5 3.19 14.071 1.425 2.829 3.116 4.6 4.9 5.41zm-7.29 17.937a22 22 0 0 1-1.182-2.067c-2.131-4.233-3.393-9.795-3.62-15.87h-7.806A22 22 0 0 0 22.71 51.937m19.554-.472A22 22 0 0 0 53.921 34h-7.15a51 51 0 0 1-.26 3.589l-3.998-.24q.185-1.627.255-3.349H34v19.742c2.032-.641 3.973-2.486 5.577-5.671q.129-.255.252-.517l3.874 1.145q-.267.6-.553 1.171a23 23 0 0 1-.885 1.595M42.768 30H34V10.258c2.032.641 3.973 2.486 5.577 5.671 1.799 3.572 2.965 8.487 3.191 14.071m4.003 0c-.227-6.075-1.49-11.637-3.621-15.87a22 22 0 0 0-.885-1.595A22 22 0 0 1 53.921 30z" clip-rule="evenodd"/></svg>
